Origami/64x64/apps/com.github.artemanufrij.playmyvideos.svg

<svg width="64" height="64" version="1" xmlns="http://www.w3.org/2000/svg">
 <rect transform="matrix(0,-1,-1,0,0,0)" x="-55" y="-60" width="43" height="56" rx="2.688" ry="2.8" style="opacity:.2"/>
 <rect transform="matrix(0,-1,-1,0,0,0)" x="-54" y="-60" width="43" height="56" rx="2.688" ry="2.8" style="fill:#4f4f4f"/>
 <rect x="52" y="18" width="5" height="5" rx="1.124" ry="1.089" style="opacity:.4"/>
 <rect x="52" y="42" width="5" height="5" rx="1.124" ry="1.089" style="opacity:.4"/>
 <rect x="52" y="34" width="5" height="5" rx="1.124" ry="1.089" style="opacity:.4"/>
 <rect x="52" y="26" width="5" height="5" rx="1.124" ry="1.089" style="opacity:.4"/>
 <path d="m23.818594 23.000158c-0.739124-0.014-0.866259 0.905237-0.805166 1.568834 0.0054 6.210652-0.0095 12.422146 0.0068 18.632521 0.06499 0.742557 0.889768 1.039244 1.358692 0.578745 5.011647-3.179666 12.301425-6.337494 17.305594-9.530882 0.546036-0.439541 0.336907-1.463133-0.272563-1.675932-5.011783-3.167067-12.282932-6.351494-17.298794-9.50778-0.09369-0.04312-0.194377-0.06537-0.295121-0.06552z" style="opacity:.2"/>
 <path d="m23.818594 22.000158c-0.739124-0.014-0.866259 0.905237-0.805166 1.568834 0.0054 6.210652-0.0095 12.422146 0.0068 18.632521 0.06499 0.742557 0.889768 1.039244 1.358692 0.578745 5.011647-3.179666 12.301425-6.337494 17.305594-9.530882 0.546036-0.439541 0.336907-1.463133-0.272563-1.675932-5.011783-3.167067-12.282932-6.351494-17.298794-9.50778-0.09369-0.04312-0.194377-0.06537-0.295121-0.06552z" style="fill:#ffffff"/>
 <rect x="7" y="18" width="5" height="5" rx="1.124" ry="1.089" style="opacity:.4"/>
 <rect x="7" y="42" width="5" height="5" rx="1.124" ry="1.089" style="opacity:.4"/>
 <rect x="7" y="34" width="5" height="5" rx="1.124" ry="1.089" style="opacity:.4"/>
 <rect x="7" y="26" width="5" height="5" rx="1.124" ry="1.089" style="opacity:.4"/>
 <path d="m6.8007812 11c-1.5511999 0-2.8007812 1.198625-2.8007812 2.6875v1c0-1.488875 1.2495813-2.6875 2.8007812-2.6875h50.398438c1.5512 0 2.800781 1.198625 2.800781 2.6875v-1c0-1.488875-1.249581-2.6875-2.800781-2.6875h-50.398438z" style="fill:#ffffff;opacity:.1"/>
</svg>

<svg xmlns="http://www.w3.org/2000/svg" width="64" height="64" version="1">
 <rect style="opacity:0.2" width="43" height="56" x="-55" y="-60" rx="2.688" ry="2.8" transform="matrix(0,-1,-1,0,0,0)"/>
 <rect width="43" height="56" x="-54" y="-60" rx="2.688" ry="2.8" transform="matrix(0,-1,-1,0,0,0)" style="fill:#4f4f4f"/>
 <rect width="5" height="5" x="52" y="18" rx="1.124" ry="1.089" style="opacity:0.4"/>
 <rect style="opacity:0.4" width="5" height="5" x="52" y="42" rx="1.124" ry="1.089"/>
 <rect width="5" height="5" x="52" y="34" rx="1.124" ry="1.089" style="opacity:0.4"/>
 <rect style="opacity:0.4" width="5" height="5" x="52" y="26" rx="1.124" ry="1.089"/>
 <path style="opacity:0.2" d="m 23.818594,23.000158 c -0.739124,-0.014 -0.866259,0.905237 -0.805166,1.568834 0.0054,6.210652 -0.0095,12.422146 0.0068,18.632521 0.06499,0.742557 0.889768,1.039244 1.358692,0.578745 5.011647,-3.179666 12.301425,-6.337494 17.305594,-9.530882 0.546036,-0.439541 0.336907,-1.463133 -0.272563,-1.675932 -5.011783,-3.167067 -12.282932,-6.351494 -17.298794,-9.50778 -0.09369,-0.04312 -0.194377,-0.06537 -0.295121,-0.06552 z"/>
 <path d="m 23.818594,22.000158 c -0.739124,-0.014 -0.866259,0.905237 -0.805166,1.568834 0.0054,6.210652 -0.0095,12.422146 0.0068,18.632521 0.06499,0.742557 0.889768,1.039244 1.358692,0.578745 5.011647,-3.179666 12.301425,-6.337494 17.305594,-9.530882 0.546036,-0.439541 0.336907,-1.463133 -0.272563,-1.675932 -5.011783,-3.167067 -12.282932,-6.351494 -17.298794,-9.50778 -0.09369,-0.04312 -0.194377,-0.06537 -0.295121,-0.06552 z" style="fill:#ffffff"/>
 <rect style="opacity:0.4" width="5" height="5" x="7" y="18" rx="1.124" ry="1.089"/>
 <rect width="5" height="5" x="7" y="42" rx="1.124" ry="1.089" style="opacity:0.4"/>
 <rect style="opacity:0.4" width="5" height="5" x="7" y="34" rx="1.124" ry="1.089"/>
 <rect width="5" height="5" x="7" y="26" rx="1.124" ry="1.089" style="opacity:0.4"/>
 <path style="fill:#ffffff;opacity:0.1" d="M 6.8007812 11 C 5.2495813 11 4 12.198625 4 13.6875 L 4 14.6875 C 4 13.198625 5.2495813 12 6.8007812 12 L 57.199219 12 C 58.750419 12 60 13.198625 60 14.6875 L 60 13.6875 C 60 12.198625 58.750419 11 57.199219 11 L 6.8007812 11 z"/>
</svg>
